apps/www/public/images/career/icons/healthcare-dark.svg

<svg width="49" height="49" viewBox="0 0 49 49" fill="none" xmlns="http://www.w3.org/2000/svg">
<rect x="0.615234" y="0.583008" width="48" height="48" rx="8" fill="#164430"/>
<mask id="path-2-outside-1_1368_10900" maskUnits="userSpaceOnUse" x="11.7686" y="11.7014" width="26" height="26" fill="black">
<rect fill="white" x="11.7686" y="11.7014" width="26" height="26"/>
<path fill-rule="evenodd" clip-rule="evenodd" d="M26.8109 22.3534V13.7014H22.4209V22.3534H13.7686V26.7434H22.4209V35.3951H26.8109V26.7434H35.4623V22.3534H26.8109Z"/>
</mask>
<path fill-rule="evenodd" clip-rule="evenodd" d="M26.8109 22.3534V13.7014H22.4209V22.3534H13.7686V26.7434H22.4209V35.3951H26.8109V26.7434H35.4623V22.3534H26.8109Z" fill="#1B543A"/>
<path d="M26.8109 13.7014H28.8109L26.8109 11.7014V13.7014ZM26.8109 22.3534H24.8109L26.8109 24.3534V22.3534ZM22.4209 13.7014V11.7014L20.4209 13.7014H22.4209ZM22.4209 22.3534V24.3534L24.4209 22.3534H22.4209ZM13.7686 22.3534V20.3534L11.7686 22.3534H13.7686ZM13.7686 26.7434H11.7686L13.7686 28.7434V26.7434ZM22.4209 26.7434H24.4209L22.4209 24.7434V26.7434ZM22.4209 35.3951H20.4209L22.4209 37.3951V35.3951ZM26.8109 35.3951V37.3951L28.8109 35.3951H26.8109ZM26.8109 26.7434V24.7434L24.8109 26.7434H26.8109ZM35.4623 26.7434V28.7434L37.4623 26.7434H35.4623ZM35.4623 22.3534H37.4623L35.4623 20.3534V22.3534ZM24.8109 13.7014V22.3534H28.8109V13.7014H24.8109ZM22.4209 15.7014H26.8109V11.7014H22.4209V15.7014ZM24.4209 22.3534V13.7014H20.4209V22.3534H24.4209ZM13.7686 24.3534H22.4209V20.3534H13.7686V24.3534ZM15.7686 26.7434V22.3534H11.7686V26.7434H15.7686ZM22.4209 24.7434H13.7686V28.7434H22.4209V24.7434ZM24.4209 35.3951V26.7434H20.4209V35.3951H24.4209ZM26.8109 33.3951H22.4209V37.3951H26.8109V33.3951ZM24.8109 26.7434V35.3951H28.8109V26.7434H24.8109ZM35.4623 24.7434H26.8109V28.7434H35.4623V24.7434ZM33.4623 22.3534V26.7434H37.4623V22.3534H33.4623ZM26.8109 24.3534H35.4623V20.3534H26.8109V24.3534Z" fill="#4CC38A" mask="url(#path-2-outside-1_1368_10900)"/>
<ellipse cx="24.615" cy="24.5486" rx="17.6853" ry="17.6853" stroke="#4CC38A" stroke-width="2" stroke-miterlimit="10" stroke-linejoin="bevel"/>
</svg>

<svg xmlns="http://www.w3.org/2000/svg" width="49" height="49" fill="none" viewBox="0 0 49 49"><rect width="48" height="48" x=".615" y=".583" fill="#164430" rx="8"/><mask id="a" width="26" height="26" x="11.769" y="11.701" fill="#000" maskUnits="userSpaceOnUse"><path fill="#fff" d="M11.769 11.701h26v26h-26z"/><path fill-rule="evenodd" d="M26.81 22.353v-8.652h-4.39v8.652H13.77v4.39h8.652v8.652h4.39v-8.652h8.651v-4.39z" clip-rule="evenodd"/></mask><path fill="#1b543a" fill-rule="evenodd" d="M26.81 22.353v-8.652h-4.39v8.652H13.77v4.39h8.652v8.652h4.39v-8.652h8.651v-4.39z" clip-rule="evenodd"/><path fill="#4cc38a" d="M26.81 13.701h2l-2-2zm0 8.652h-2l2 2zm-4.39-8.652v-2l-2 2zm0 8.652v2l2-2zm-8.651 0v-2l-2 2zm0 4.39h-2l2 2zm8.652 0h2l-2-2zm0 8.652h-2l2 2zm4.39 0v2l2-2zm0-8.652v-2l-2 2zm8.651 0v2l2-2zm0-4.39h2l-2-2zm-10.651-8.652v8.652h4v-8.652zm-2.39 2h4.39v-4h-4.39zm2 6.652v-8.652h-4v8.652zm-10.652 2h8.652v-4h-8.652zm2 2.39v-4.39h-4v4.39zm6.652-2h-8.652v4h8.652zm2 10.652v-8.652h-4v8.652zm2.39-2h-4.39v4h4.39zm-2-6.652v8.652h4v-8.652zm10.651-2h-8.651v4h8.651zm-2-2.39v4.39h4v-4.39zm-6.651 2h8.651v-4h-8.651z" mask="url(#a)"/><circle cx="24.615" cy="24.549" r="17.685" stroke="#4cc38a" stroke-linejoin="bevel" stroke-miterlimit="10" stroke-width="2"/></svg>
